svg/fluentui-system-icons/ic_fluent_arrow_repeat_all_off_20_filled.svg

<svg width="20" height="20" viewBox="0 0 20 20" fill="none" xmlns="http://www.w3.org/2000/svg">
<path d="M2.22229 2.22162C2.48856 1.95536 2.90522 1.93115 3.19883 2.149L3.28295 2.22162L17.7786 16.7173L17.8513 16.8014C18.0691 17.095 18.0449 17.5117 17.7786 17.778C17.5124 18.0442 17.0957 18.0684 16.8021 17.8506L16.718 17.778L13.8646 14.9258C13.678 14.9582 13.4878 14.9803 13.2947 14.9914L13.0029 14.9998L8.56105 14.999L9.7808 16.2195C10.0471 16.4857 10.0713 16.9024 9.85341 17.196L9.7808 17.2801C9.51453 17.5464 9.09787 17.5706 8.80425 17.3527L8.72014 17.2801L6.22014 14.7801C5.95387 14.5139 5.92966 14.0972 6.14752 13.8036L6.22014 13.7195L8.72014 11.2195C9.01303 10.9266 9.4879 10.9266 9.7808 11.2195C10.0471 11.4857 10.0713 11.9024 9.85341 12.196L9.7808 12.2801L8.56105 13.499H12.438L5.6916 6.75177C4.46204 7.2468 3.57828 8.41976 3.50323 9.80776L3.49805 9.9998C3.49805 11.0829 3.99006 12.0512 4.76278 12.6932C4.90897 12.8287 5.00047 13.0236 5.00047 13.2398C5.00047 13.654 4.66468 13.9898 4.25047 13.9898C4.05918 13.9898 3.88462 13.9182 3.75213 13.8003C2.67913 12.887 1.99805 11.523 1.99805 9.9998C1.99805 8.12031 3.03506 6.48303 4.56812 5.62892L2.22229 3.28228L2.14967 3.19816C1.93182 2.90455 1.95602 2.48789 2.22229 2.22162ZM15.7505 6.0098C15.9298 6.0098 16.0944 6.07272 16.2234 6.17768C17.3113 7.09163 18.0029 8.46495 18.0029 9.9998C18.0029 11.5196 17.3248 12.881 16.2547 13.798L15.1893 12.733C15.9901 12.0916 16.5029 11.1056 16.5029 9.9998C16.5029 8.91912 16.0131 7.95284 15.2434 7.31081C15.094 7.17518 15.0005 6.97841 15.0005 6.7598C15.0005 6.34558 15.3363 6.0098 15.7505 6.0098ZM10.2201 2.71947C10.4864 2.4532 10.9031 2.42899 11.1967 2.64685L11.2808 2.71947L13.7808 5.21947L13.8534 5.30359C14.0471 5.56457 14.0495 5.92279 13.8606 6.18618L13.7808 6.28013L11.2808 8.78013L11.256 8.80095L10.199 7.74395L10.2201 7.71947L11.439 6.49895H8.95305L7.45205 4.99895H11.439L10.2201 3.78013L10.1475 3.69601C9.92966 3.4024 9.95387 2.98573 10.2201 2.71947Z" fill="#212121"/>
</svg>

<svg xmlns="http://www.w3.org/2000/svg" width="20" height="20"><path d="M2.222 2.222a.75.75 0 0 1 .977-.073l.084.073 14.496 14.495.072.084a.75.75 0 0 1-1.049 1.05l-.084-.073-2.853-2.852a5.012 5.012 0 0 1-.57.065l-.292.009-4.442-.001 1.22 1.22a.75.75 0 0 1 .072.977l-.072.084a.75.75 0 0 1-.977.073l-.084-.073-2.5-2.5a.75.75 0 0 1-.072-.976l.072-.085 2.5-2.5a.75.75 0 0 1 1.133.977l-.072.084L8.56 13.5h3.877L5.692 6.752a3.502 3.502 0 0 0-2.189 3.056L3.498 10c0 1.083.492 2.051 1.265 2.693a.75.75 0 0 1-1.01 1.107 4.999 4.999 0 0 1 .816-8.171L2.221 3.282l-.072-.084a.75.75 0 0 1 .072-.976ZM15.751 6.01c.179 0 .343.063.472.168A4.98 4.98 0 0 1 18.003 10c0 1.52-.678 2.881-1.748 3.798l-1.066-1.065A3.493 3.493 0 0 0 16.503 10c0-1.08-.49-2.047-1.26-2.69a.75.75 0 0 1 .507-1.301Zm-5.53-3.29a.75.75 0 0 1 .976-.073l.084.072 2.5 2.5.072.085a.75.75 0 0 1 .008.882l-.08.094-2.5 2.5-.025.021-1.057-1.057.021-.025L11.44 6.5H8.953L7.453 5h3.986L10.22 3.78l-.072-.084a.75.75 0 0 1 .072-.977Z"/></svg>
